icons/barcode.svg

<svg width="24" height="24" viewBox="0 0 24 24" fill="none" xmlns="http://www.w3.org/2000/svg">
<path d="M2 5C2 4.44772 2.44772 4 3 4C3.55228 4 4 4.44772 4 5V19C4 19.5523 3.55228 20 3 20C2.44772 20 2 19.5523 2 19V5Z" fill="black"/>
<path d="M8 5C8 4.44772 8.44772 4 9 4C9.55228 4 10 4.44772 10 5V19C10 19.5523 9.55228 20 9 20C8.44772 20 8 19.5523 8 19V5Z" fill="black"/>
<path d="M12 4C11.4477 4 11 4.44772 11 5V19C11 19.5523 11.4477 20 12 20C12.5523 20 13 19.5523 13 19V5C13 4.44772 12.5523 4 12 4Z" fill="black"/>
<path d="M14 5C14 4.44772 14.4477 4 15 4C15.5523 4 16 4.44772 16 5V19C16 19.5523 15.5523 20 15 20C14.4477 20 14 19.5523 14 19V5Z" fill="black"/>
<path d="M20.5 4C19.6716 4 19 4.67157 19 5.5V18.5C19 19.3284 19.6716 20 20.5 20C21.3284 20 22 19.3284 22 18.5V5.5C22 4.67157 21.3284 4 20.5 4Z" fill="black"/>
<path d="M17 4.5C17 4.22386 17.2239 4 17.5 4C17.7761 4 18 4.22386 18 4.5V19.5C18 19.7761 17.7761 20 17.5 20C17.2239 20 17 19.7761 17 19.5V4.5Z" fill="black"/>
<path d="M6.5 4C6.22386 4 6 4.22386 6 4.5V19.5C6 19.7761 6.22386 20 6.5 20C6.77614 20 7 19.7761 7 19.5V4.5C7 4.22386 6.77614 4 6.5 4Z" fill="black"/>
</svg>

<svg
  width="24"
  height="24"
  viewBox="0 0 24 24"
  xmlns="http://www.w3.org/2000/svg"
>
  <path d="M2 5a1 1 0 0 1 2 0v14a1 1 0 1 1-2 0V5z" />
  <path d="M8 5a1 1 0 0 1 2 0v14a1 1 0 1 1-2 0V5z" />
  <path d="M12 4a1 1 0 0 0-1 1v14a1 1 0 1 0 2 0V5a1 1 0 0 0-1-1z" />
  <path d="M14 5a1 1 0 1 1 2 0v14a1 1 0 1 1-2 0V5z" />
  <path d="M20.5 4A1.5 1.5 0 0 0 19 5.5v13a1.5 1.5 0 0 0 3 0v-13A1.5 1.5 0 0 0 20.5 4z" />
  <path d="M17 4.5a.5.5 0 0 1 1 0v15a.5.5 0 0 1-1 0v-15z" />
  <path d="M6.5 4a.5.5 0 0 0-.5.5v15a.5.5 0 0 0 1 0v-15a.5.5 0 0 0-.5-.5z" />
</svg>
